X:54
T:Hag at the Churn
Z: id:dc-jig-44
M:6/8
L:1/8
K:D Mixolydian
A2G ADD|A2G Adc|A2G ADD|EFG EFG:|!
AdB c3|Add efg|[1 AdB c2A|GFG AFD:|[2 fge dcA|GFG AFD|]!

